X:1
T:Wade in the Water
M:4/4
L:1/8
K:G
 E4- E G2 E| G4 E4| B4- B ^d2 B| e2 d2B-A G2| E4- E G2 E| G4 E4| EG EG E E2 B,|\
 ^D4 E4| e3/2- d/2 B2 BA G2| EG B2E/2-G/2 E- E2| EG EG E E2 B,| ^D4 E3 B|\
 e3/2- d/2 B2 BA G2|A-G B2A/2-G/2 E- E2| EG EG E E2 B,| ^D4 E4|
